X: 7278
T: Clarke's
R: strathspey
M: 4/4
K: Dmajor
(3ABc|:"D"d>cd>B A<F D>A|"G"G>B~B2 "A"G>AB>c|"D"d>cd>B A<F D>F|"A"E>DC>E "D"D2(3ABc:|
"D"d>ef>g a>ba>f|"Em"e>df>d "A7"e>dB>c|"D"d>ef>g a>ba>f|"E7"e>d"A7"e>f "D"d2(3ABc|
"D"d>ef>g a>ba>f|"Em"e>de>f "A7"e>dB>c|"D"(3ded B>d A<F D>F|"A"E>DC>E "D"D2||

